images/tags/adf-set-variable.svg

<?xml version="1.0" encoding="UTF-8"?>
<svg width="20px" height="20px" viewBox="0 0 20 20" version="1.1" xmlns="http://www.w3.org/2000/svg" xmlns:xlink="http://www.w3.org/1999/xlink">
    <!-- Generator: Sketch 51.2 (57519) - http://www.bohemiancoding.com/sketch -->
    <title>i-20x20-Set Variables</title>
    <desc>Created with Sketch.</desc>
    <defs></defs>
    <g id="i-20x20-Set-Variables" stroke="none" stroke-width="1" fill="none" fill-rule="evenodd">
        <path d="M5.31184079,17.1335507 C3.84768309,17.1115532 3.11560424,16.2847055 3.11560424,14.6478319 L3.11560424,12.2423392 C3.11560424,11.1618732 2.74373616,10.5951138 2,10.542061 L2,9.61169562 C2.74373616,9.5586428 3.11560424,8.9815316 3.11560424,7.88036204 L3.11560424,5.53827401 C3.11560424,3.88069679 3.84768309,3.04090942 5.31184079,3.02020588 L5.31184079,4.04632511 C4.55411586,4.06702865 4.17408767,4.59755688 4.17408767,5.63402788 L4.17408767,7.98387974 C4.17408767,9.10575285 3.81737409,9.79673351 3.10161547,10.0529398 L3.10161547,10.0852891 C3.81737409,10.3259678 4.17408767,11.0104786 4.17408767,12.1388215 L4.17408767,14.4563241 C4.17408767,15.048963 4.25918601,15.4733856 4.42821695,15.72571 C4.5972479,15.9793283 4.89217775,16.1126074 5.31184079,16.1242531 L5.31184079,17.1335507 Z" id="Fill-1" fill="#00539C"></path>
        <path d="M10.8885318,9.88979834 C11.255737,11.2120501 11.7558354,12.4753037 11.9761585,12.7645102 C12.1055546,12.9357204 12.2372822,13.0213255 12.3725069,13.0213255 C12.476257,13.0236391 12.5776755,12.9947185 12.6639396,12.9357204 C12.7886728,12.8431743 12.9833498,12.6118092 13.2433077,12.2427818 L13.4764539,12.3816009 C13.0964257,13.0062867 12.7222261,13.4470373 12.3596839,13.7026958 C12.08224,13.9016698 11.8106248,14 11.5401752,14 C11.2638971,14 11.0342481,13.9375314 10.848897,13.8114374 C10.6658773,13.6865002 10.5015092,13.4828989 10.3592901,13.1983198 C10.0865091,12.606025 9.84870007,11.9986916 9.6481944,11.3774762 C9.14226729,12.0276122 8.61302557,12.659239 8.06163498,13.270043 C7.77253377,13.5708177 7.53355899,13.7686349 7.34354489,13.8611809 C7.1535308,13.953727 6.94603074,14.0011568 6.73503349,13.9988432 C6.50888174,13.9988432 6.32935922,13.9340609 6.19996312,13.7998692 C6.06473837,13.6645206 5.99246306,13.4771148 6.00062318,13.2850817 C6.00062318,13.0618144 6.07056702,12.8767223 6.21395189,12.7309622 C6.35850249,12.5852022 6.55551097,12.5053812 6.7583481,12.5123222 C6.87492117,12.5123222 7.00781446,12.5470269 7.15586226,12.6187501 C7.3703567,12.7251781 7.52773034,12.7783921 7.62098879,12.7783921 C7.73872758,12.7807057 7.85530065,12.7529419 7.96021641,12.6985711 C8.08961251,12.632632 8.25514626,12.4891857 8.45332048,12.2693888 C8.57455646,12.1328833 9.19239371,11.3855739 9.51646683,10.9401961 C9.10263245,9.37154043 8.7773936,8.4333548 8.54308174,8.12448234 C8.41601709,7.93707658 8.20735131,7.82602131 7.98469675,7.82717814 C7.86928942,7.82717814 7.27593251,8.32461319 7.10690157,8.35931796 L7.10690157,7.23256974 L9.86735176,7.23256974 C10.2788547,7.88964673 10.5679559,8.61034913 10.7369868,9.40046107 C11.1624785,8.76073647 11.4842202,8.31420175 11.6998803,8.05738645 C11.991313,7.71380922 12.2291221,7.49054187 12.415639,7.38642755 C12.6044873,7.28462689 12.804993,7.23256974 13.017156,7.23256974 C13.2561308,7.23256974 13.4391505,7.2985088 13.5662151,7.43038693 C13.6991084,7.57499014 13.7667208,7.76818003 13.757395,7.9648404 C13.7643893,8.15687346 13.696777,8.34427922 13.5662151,8.48425513 C13.4414819,8.61613326 13.2677881,8.68901328 13.0859341,8.6855428 C12.9495436,8.6855428 12.7898385,8.66009263 12.610316,8.60803548 C12.48908,8.5687034 12.3631811,8.54441007 12.2372822,8.53399863 C12.0461024,8.53746911 11.8619169,8.60687865 11.7162006,8.73181583 C11.4923803,8.91228063 11.2161021,9.29866041 10.8885318,9.88979834" id="Fill-4" fill="#424242"></path>
        <path d="M18.3036807,10.542061 C17.5599445,10.5964078 17.1880764,11.1618732 17.1880764,12.2423392 L17.1880764,14.6478319 C17.1880764,16.2847055 16.458329,17.1128472 15,17.1335507 L15,16.1242531 C15.4138344,16.1126074 15.7087642,15.9793283 15.8836238,15.721828 C16.0573177,15.4656217 16.1435818,15.0437871 16.1435818,14.4563241 L16.1435818,12.1388215 C16.1435818,11.0104786 16.4991296,10.3259678 17.2102253,10.0852891 L17.2102253,10.0529398 C16.4991296,9.79673351 16.1435818,9.10704682 16.1435818,7.98387974 L16.1435818,5.63532186 C16.1435818,4.59755688 15.7623878,4.06832263 15,4.04632511 L15,3.02020588 C16.458329,3.0422034 17.1880764,3.88069679 17.1880764,5.53827401 L17.1880764,7.88036204 C17.1880764,8.9815316 17.5599445,9.5586428 18.3036807,9.61169562 L18.3036807,10.542061 Z" id="Fill-6" fill="#00539C"></path>
    </g>
</svg>

<svg width="20px" height="20px" version="1.1" viewBox="0 0 20 20" xmlns="http://www.w3.org/2000/svg">
 <title>i-20x20-Set Variables</title>
 <desc>Created with Sketch.</desc>
 <g id="i-20x20-Set-Variables" fill-rule="evenodd">
  <path d="m5.3118 17.134c-1.4642-0.021998-2.1962-0.84885-2.1962-2.4857v-2.4055c0-1.0805-0.37187-1.6472-1.1156-1.7003v-0.93037c0.74374-0.053053 1.1156-0.63016 1.1156-1.7313v-2.3421c0-1.6576 0.73208-2.4974 2.1962-2.5181v1.0261c-0.75772 0.020704-1.1378 0.55123-1.1378 1.5877v2.3499c0 1.1219-0.35671 1.8129-1.0725 2.0691v0.032349c0.71576 0.24068 1.0725 0.92519 1.0725 2.0535v2.3175c0 0.59264 0.085098 1.0171 0.25413 1.2694 0.16903 0.25362 0.46396 0.3869 0.88362 0.39854v1.0093z" fill="#00539C"/>
  <path d="m10.889 9.8898c0.36721 1.3223 0.8673 2.5855 1.0876 2.8747 0.1294 0.17121 0.26112 0.25682 0.39635 0.25682 0.10375 0.0023136 0.20517-0.026607 0.29143-0.085605 0.12473-0.092546 0.31941-0.32391 0.57937-0.69294l0.23315 0.13882c-0.38003 0.62469-0.75423 1.0654-1.1168 1.3211-0.27744 0.19897-0.54906 0.2973-0.81951 0.2973-0.27628 0-0.50593-0.062469-0.69128-0.18856-0.18302-0.12494-0.34739-0.32854-0.48961-0.61312-0.27278-0.59229-0.51059-1.1996-0.7111-1.8208-0.50593 0.65014-1.0352 1.2818-1.5866 1.8926-0.2891 0.30077-0.52808 0.49859-0.71809 0.59114-0.19001 0.092546-0.39751 0.13998-0.60851 0.13766-0.22615 0-0.40567-0.064782-0.53507-0.19897-0.13522-0.13535-0.2075-0.32275-0.19934-0.51479 0-0.22327 0.069944-0.40836 0.21333-0.55412 0.14455-0.14576 0.34156-0.22558 0.5444-0.21864 0.11657 0 0.24947 0.034705 0.39751 0.10643 0.21449 0.10643 0.37187 0.15964 0.46513 0.15964 0.11774 0.0023136 0.23431-0.02545 0.33923-0.079821 0.1294-0.065939 0.29493-0.20939 0.4931-0.42918 0.12124-0.13651 0.73907-0.88381 1.0631-1.3292-0.41383-1.5687-0.73907-2.5068-0.97339-2.8157-0.12706-0.18741-0.33573-0.29846-0.55838-0.2973-0.11541 0-0.70876 0.49744-0.8778 0.53214v-1.1267h2.7605c0.4115 0.65708 0.7006 1.3778 0.86964 2.1679 0.42549-0.63972 0.74723-1.0863 0.96289-1.3431 0.29143-0.34358 0.52924-0.56684 0.71576-0.67096 0.18885-0.1018 0.38935-0.15386 0.60152-0.15386 0.23897 0 0.42199 0.065939 0.54906 0.19782 0.13289 0.1446 0.20051 0.33779 0.19118 0.53445 0.0069943 0.19203-0.060618 0.37944-0.19118 0.51941-0.12473 0.13188-0.29843 0.20476-0.48028 0.20129-0.13639 0-0.2961-0.02545-0.47562-0.077507-0.12124-0.039332-0.24713-0.063625-0.37303-0.074037-0.19118 0.0034705-0.37537 0.07288-0.52108 0.19782-0.22382 0.18046-0.5001 0.56684-0.82767 1.158" fill="#424242"/>
  <path d="m18.304 10.542c-0.74374 0.054347-1.1156 0.61981-1.1156 1.7003v2.4055c0 1.6369-0.72975 2.465-2.1881 2.4857v-1.0093c0.41383-0.011646 0.70876-0.14492 0.88362-0.40243 0.17369-0.25621 0.25996-0.67804 0.25996-1.2655v-2.3175c0-1.1283 0.35555-1.8129 1.0666-2.0535v-0.032349c-0.7111-0.25621-1.0666-0.94589-1.0666-2.0691v-2.3486c0-1.0378-0.38119-1.567-1.1436-1.589v-1.0261c1.4583 0.021998 2.1881 0.86049 2.1881 2.5181v2.3421c0 1.1012 0.37187 1.6783 1.1156 1.7313v0.93037z" fill="#00539C"/>
 </g>
</svg>
